static/logos/xbox.svg

<?xml version="1.0" encoding="UTF-8" standalone="no"?>
<svg
   fill="#FFFFFF"
   viewBox="0 0 30 30"
   width="120px"
   height="120px"
   version="1.1"
   id="svg4"
   sodipodi:docname="xbox.svg"
   inkscape:version="1.1.2 (0a00cf5339, 2022-02-04)"
   xmlns:inkscape="http://www.inkscape.org/namespaces/inkscape"
   xmlns:sodipodi="http://sodipodi.sourceforge.net/DTD/sodipodi-0.dtd"
   xmlns="http://www.w3.org/2000/svg"
   xmlns:svg="http://www.w3.org/2000/svg">
  <defs
     id="defs8" />
  <sodipodi:namedview
     id="namedview6"
     pagecolor="#ffffff"
     bordercolor="#666666"
     borderopacity="1.0"
     inkscape:pageshadow="2"
     inkscape:pageopacity="0.0"
     inkscape:pagecheckerboard="0"
     showgrid="false"
     inkscape:zoom="2.1958333"
     inkscape:cx="141.40417"
     inkscape:cy="32.789374"
     inkscape:window-width="1366"
     inkscape:window-height="699"
     inkscape:window-x="0"
     inkscape:window-y="32"
     inkscape:window-maximized="1"
     inkscape:current-layer="svg4" />
  <path
     d="m 15,0.07147298 c -2.424642,0 -5.4290276,0.76903299 -7.6707942,2.11633252 -0.1617257,0.094547 -0.6057522,0.3992992 -0.8334123,0.6754769 v 0.00243 C 8.634305,0.50700504 14.866887,5.4813145 15,5.5870584 v 0.00243 C 15.133113,5.4837444 21.365696,0.509493 23.504207,2.8657123 23.275302,2.5895344 22.831335,2.2860267 22.668364,2.1902353 20.427842,0.8454238 17.805261,0.07147298 15.00243,0.07147298 Z M 5.5967774,3.9323827 C 5.0928813,4.0135566 4.5289601,4.3350642 4.0465821,4.8556965 1.579643,7.5191946 0.07147298,11.08132 0.07147298,14.99757 c 0,3.867061 1.47132242,7.386494 3.88277772,10.037393 C 3.1630387,21.205796 3.8829513,18.507018 6.0438556,14.99757 8.2084922,11.48439 12.013808,7.5333067 12.013808,7.5333067 8.8738413,4.5687501 6.6427268,4.0381264 6.0754428,3.9323827 c -0.1492853,-0.027991 -0.3107,-0.027058 -0.4786654,0 z M 3.9542507,25.034963 c 0,0 0,0.0024 0,0.0024 v 0.0024 c 2.7306764,3.000635 6.6853173,4.888704 11.0481793,4.888704 4.375302,0 8.313828,-1.884454 11.045749,-4.883844 v -0.0024 C 28.459136,22.389952 29.928527,18.867733 29.928527,15 c 0,-3.91625 -1.506927,-7.4771315 -3.975108,-10.1418737 -0.643171,-0.6941764 -1.431721,-1.0352778 -2.028862,-0.9233137 -0.56604,0.1069877 -2.798398,0.6376113 -5.938365,3.6009239 0,0 3.805316,3.9510835 5.969953,7.4642635 2.15966,3.510692 2.880816,6.208226 2.089604,10.037393 -0.0075,-0.04354 -0.310058,-2.008645 -2.320433,-4.789083 C 22.154089,18.079942 17.488088,12.885612 15,10.521928 c -2.488088,2.363684 -7.1540884,7.553096 -8.7253159,9.723953 -2.0103749,2.77795 -2.3129692,4.744297 -2.3204334,4.789082 z"
     id="path2"
     style="fill:#ffffff;stroke-width:1.24404" />
</svg>

<?xml version="1.0" encoding="UTF-8"?>
<svg viewBox="0 0 30 30" xmlns="http://www.w3.org/2000/svg">
<path d="m15 0.071473c-2.4246 0-5.429 0.76903-7.6708 2.1163-0.16173 0.094547-0.60575 0.3993-0.83341 0.67548v0.00243c2.1385-2.3587 8.3711 2.6156 8.5042 2.7213v0.00243c0.13311-0.10574 6.3657-5.08 8.5042-2.7238-0.2289-0.27618-0.67287-0.57969-0.83584-0.67548-2.2405-1.3448-4.8631-2.1188-7.6659-2.1188zm-9.4032 3.8609c-0.5039 0.081174-1.0678 0.40268-1.5502 0.92331-2.4669 2.6635-3.9751 6.2256-3.9751 10.142 0 3.8671 1.4713 7.3865 3.8828 10.037-0.79121-3.8292-0.071299-6.5279 2.0896-10.037 2.1646-3.5132 5.97-7.4643 5.97-7.4643-3.14-2.9646-5.3711-3.4952-5.9384-3.6009-0.14929-0.027991-0.3107-0.027058-0.47867 0zm-1.6425 21.103v0.0024 0.0024c2.7307 3.0006 6.6853 4.8887 11.048 4.8887 4.3753 0 8.3138-1.8845 11.046-4.8838v-0.0024c2.411-2.6523 3.8803-6.1745 3.8803-10.042 0-3.9162-1.5069-7.4771-3.9751-10.142-0.64317-0.69418-1.4317-1.0353-2.0289-0.92331-0.56604 0.10699-2.7984 0.63761-5.9384 3.6009 0 0 3.8053 3.9511 5.97 7.4643 2.1597 3.5107 2.8808 6.2082 2.0896 10.037-0.0075-0.04354-0.31006-2.0086-2.3204-4.7891-1.5712-2.1684-6.2372-7.3627-8.7253-9.7264-2.4881 2.3637-7.1541 7.5531-8.7253 9.724-2.0104 2.778-2.313 4.7443-2.3204 4.7891z" fill="#fff" stroke-width="1.244"/>
</svg>
